img/social-youtube.svg

<svg width="18" height="18" viewBox="0 0 18 18" fill="none" xmlns="http://www.w3.org/2000/svg">
<path fill-rule="evenodd" clip-rule="evenodd" d="M16.83 6.07691C16.83 6.07691 16.6637 4.89713 16.1543 4.3777C15.5077 3.69558 14.7831 3.69239 14.4511 3.65281C12.0721 3.47949 8.50372 3.47949 8.50372 3.47949H8.49628C8.49628 3.47949 4.92787 3.47949 2.54894 3.65281C2.21637 3.69239 1.49228 3.69558 0.845219 4.3777C0.33575 4.89727 0.17 6.07691 0.17 6.07691C0.17 6.07691 0 7.46267 0 8.84777V10.1468C0 11.5324 0.17 12.9177 0.17 12.9177C0.17 12.9177 0.33575 14.0975 0.845219 14.6169C1.49228 15.299 2.34175 15.2776 2.72 15.3488C4.08 15.4804 8.5 15.5211 8.5 15.5211C8.5 15.5211 12.0721 15.5158 14.4511 15.3424C14.7831 15.3023 15.5077 15.2991 16.1543 14.617C16.6637 14.0975 16.83 12.9178 16.83 12.9178C16.83 12.9178 17 11.5326 17 10.1468V8.84777C17 7.46267 16.83 6.07691 16.83 6.07691ZM6.74475 11.7209L6.74422 6.91057L11.3374 9.32404L6.74475 11.7209Z" fill="white"/>
</svg>

<svg width="18" height="18" fill="none" xmlns="http://www.w3.org/2000/svg"><path fill-rule="evenodd" clip-rule="evenodd" d="M16.83 6.077s-.166-1.18-.676-1.7c-.646-.681-1.37-.685-1.703-.724-2.379-.174-5.947-.174-5.947-.174h-.008s-3.568 0-5.947.174c-.333.04-1.057.043-1.704.725-.51.52-.675 1.699-.675 1.699S0 7.463 0 8.847v1.3c0 1.385.17 2.77.17 2.77s.166 1.18.675 1.7c.647.682 1.497.66 1.875.732 1.36.131 5.78.172 5.78.172s3.572-.005 5.951-.179c.332-.04 1.057-.043 1.703-.725.51-.52.676-1.7.676-1.7s.17-1.384.17-2.77v-1.3c0-1.384-.17-2.77-.17-2.77ZM6.745 11.72V6.91l4.592 2.413-4.592 2.397Z" fill="#fff"/></svg>
